img/home-active.svg

<svg width="18" height="17" fill="none" xmlns="http://www.w3.org/2000/svg"><path fill-rule="evenodd" clip-rule="evenodd" d="M2 17h5v-6h4v6h5v-7h2L9 0 0 10h2v7z" fill="#4592FF"/></svg>

<svg width="18" height="17" viewBox="0 0 18 17" fill="none" xmlns="http://www.w3.org/2000/svg">
<path fill-rule="evenodd" clip-rule="evenodd" d="M2 17H7V11H11V17H16V10H18L9 0L0 10H2V17Z" fill="#4592FF"/>
</svg>
